!!!!SEGMENT: pl-kk--kk-i-356--009_mel-rinaldo-del--non-turbetur-cor-vestrum.krn
!!!cenid: 17xx:1953
!!!COM: Mel, Rinaldo del
!!!COM-rismid: pe327026
!!!CDT: ~1554-~1598
!!!CNT: French-Flemish
!!!OTL: Non turbetur cor vestrum
!!!PDT:
!!!AGN: Sacred
!!!SMS-siglum: PL-Kk
!!!SMS-shelfmark: Kk.I.356
!!!SMS-shelfwork: 009 W
!!!SMS-variant:
!!!SMS-altvar:
!!!NIFC-rismid: 1001142091
!!!URL-scan: http://repozytorium.nifc.pl/skany/pl-kk-nut--i-356
!!!ONB-nifc: UWAGA: tylko partia basu.
**kern	**text
*I"Baſso.	*
*I'B	*
*clefF3	*
*k[b-]	*
*f:	*
*M2/1	*
*met(C|)	*
=1-	=1-
!LO:TX:t=P:problem:znaki w jednej linii BB- B-	!
0r	.
=2-	=2-
.	.
=3-	=3-
0r	.
=4-	=4-
.	.
=5-	=5-
0r	.
=6-	=6-
1r	.
1.F\	Non
=7-	=7-
2F/	tur-
2D/	-be-
2BB-/	-tur
=8-	=8-
1F\	Cor
1G\	ve-
=9-	=9-
!LO:TX:t=P:problem:kreska pseudotaktowa	!
1F\	-stru(m)
2r	.
1B-\	e-
=10-	=10-
*2\right	*
2A\	-go
1G\	va-
=11-	=11-
2F\	-do
2F\	ad
1c\	Pa-
=12-	=12-
!LO:TX:t=P:problem:kreska pseudotaktowa	!
0F\	-trem
=13-	=13-
0r	.
=14-	=14-
1C/	et
2c\	du(m)
2c\	as-
=15-	=15-
2c\	-sum-
2c\	-pt(us)
2.d\	fu-
4c\	-e-
=16-	=16-
2B-\	-ro
2A\	.
1.G\	.
=17-	=17-
!LO:TX:t=P:problem:kreska pseudotaktowa	!
2G\	a
!!LO:LB:g=original
2.D/	vo-
4C/	.
=18-	=18-
4BB-/	.
4C/	.
4D/	.
4E/	.
4F/	.
4G/	.
4A/	.
4F/	.
=19-	=19-
1c\	.
0.G\	-bis
=20-	=20-
.	.
=21-	=21-
2r	.
1c\	mit-
!LO:TX:t=P:problem:kasownik jako krzyżyk	!
4Bn\	.
4A\	.
=22-	=22-
!LO:TX:t=P:problem:kasownik jako krzyżyk	!
2Bn\	.
2c\	-tam
1G\	vo-
=23-	=23-
1A\	-bis
!LO:TX:t=P:problem:kreska pseudotaktowa	!
1G\	.
=24-	=24-
0r	.
=25-	=25-
1r	.
2r	.
2G\	al-
=26-	=26-
4G\	-le-
4F\	.
4E/	.
4D/	.
2C/	-lu-
2C/	.
=27-	=27-
!LO:TX:t=P:problem:kreska pseudotaktowa	!
0D/	-ia
=28-	=28-
2r	.
2.G\	Spi-
4G\	-ri-
2G\	-tum
!!LO:LB:g=original
=29-	=29-
2C/	ve-
2C/	-ri-
1G\	-ta-
=30-	=30-
1C/	-tis
00r	.
=31-	=31-
.	.
=32-	=32-
.	.
1r	.
=33-	=33-
*M3/1	*
1C/	et
1C/	gau-
!LO:TX:t=P:problem:kreska pseudotaktowa	!
1C/	-de-
=34-	=34-
2F\	-bit
2A\	cor
1G\	ve-
!LO:TX:t=P:problem:kreska pseudotaktowa	!
1C/	-stru(m)
=35-	=35-
*	*ij
1F\	cor
1F\	ve-
1F\	-stru(m)
=36-	=36-
2B-\	cor
2d\	.
1c\	ve-
1F\	-stru(m)
*	*Xij
=37-	=37-
0.r	.
=38-	=38-
0.r	.
=39-	=39-
0.r	.
=40-	=40-
0.r	.
=41-	=41-
*M2/1	*
*met(C|)	*
2r	.
2c\	al-
4c\	-le-
4B-\	.
4A\	.
4G\	.
=42-	=42-
1F\	lu-
1.G\	.
=43-	=43-
2G\	.
!LO:TX:t=P:problem:kreska pseudotaktowa	!
1C/	-ia
!!LO:LB:g=original
=44-	=44-
*M3/1	*
1C/	et
1C/	gau-
1C/	-de-
=45-	=45-
2F\	-bit
2A\	cor
1G\	ve-
1C/	-stru(m)
=46-	=46-
*	*ij
1F\	cor
1F\	ve-
1F\	-stru(m)
=47-	=47-
2B-\	cor
2d\	.
1c\	ve-
1F\	-stru(m)
*	*Xij
=48-	=48-
0.r	.
=49-	=49-
0.r	.
=50-	=50-
0.r	.
=51-	=51-
0.r	.
=52-	=52-
*M2/1	*
*met(C|)	*
2r	.
2c\	al-
4c\	-le-
4B-\	.
4A\	.
4G\	.
=53-	=53-
4F/	.
4E/	.
4D/	.
4C/	.
1BB-/	.
=54-	=54-
1.C/	.
2C/	-lu-
=55-	=55-
00F;\	-ia.
==	==
*-	*-
!!!EED: Leszek Kubiak
!!!EST: 2021-02-23
!!!ENC: Marcin Jachim
!!!END: 2021-02-06
